X:1
T:Title
%%score ( 1 2 ) ( 3 4 )
L:1/8
Q:1/4=96
M:4/4
K:G
V:1 treble nm="Midi_20"
V:2 treble 
V:3 bass nm="Midi_20"
V:4 bass 
V:1
"^Brockham (L.M.)""^Jeremiah Clarke\n(1673-1707)" D2 | G2 A2 B2 F2 | G2 A2 F2 A2 | c3 c B2 G2 | %4
 B2 ^c2[Q:1/4=48] d2 ||[Q:1/4=48][Q:1/4=96][Q:1/4=48] d2 x6 | B2 G2 E2 B2 | c2 A2 F2 D2 | %8
 G3 A B2 d2 |] B2 AG[Q:1/4=48] G2 |] %10
V:2
 B,2 | D2 D2 D2 D2 | B,2 E2 D2 D2 | E2 C2 D2 D2 | E2 G2 F2 || D2 D2 D2 C2 | D2 C2 E2 D2 | %7
 A,2 D3 C D2 | D2 D2 C2 B,2 |] x6 |] %10
V:3
 G,2 | B,2 A,2 G,2 A,2 | G,2 C2 A,2 F,2 | G,2 F,2 G,2 B,2 | G,2 G,2 A,2 || %5
"^1  Creator of the stars of night,\nThy people's everlasting light,\nJesu, Redeemer, save us all,\nand hear Thy servants when they call.\n\n2  Thou, grieving that the ancient curse\nshould doom to death a universe,\nhast found the medicine, full of grace,\nto save and heal a ruined race. \n\n3  Thou camest, the Bridegroom of the bride,\nas drew the world to evening tide,\nproceeding from a virgin shrine,\nthe spotless Victim all divine.\n\n" A,2 x6 | %6
 G,2 G,2 G,2 ^G,2 | %7
 A,2 A,2 A,2"^4  At whose dread Name, majestic now,\nall knees must bend, all hearts must bow;\nand things celestial Thee shall own,\nand things terrestrial Lord alone.\n\n5  O Thou whose coming is with dread,\nto judge and doom the quick and dead,\npreserve us, while we dwell below,\nfrom every insult of the foe.\n\n6  To God the Father, God the Son,\nand God the Spirit, Three in One,\nlaud, honour, might, and glory be\nfrom age to age eternally. Amen.\n\nTr. John Mason Neale (1818-66)" F,2 | %8
 G,3 F, G,2 G,2 |] G,2 F,2 G,2 |] %10
V:4
 G,2 | G,2 F,2 G,2 D,2 | E,2 A,,2 D,2 D,2 | C,2 A,,2 G,,2 G,F, | E,2 E,2 D,2 || F,,2 x6 | %6
 G,,2 B,,2 C,2 B,,2 | A,,2 C,2 D,2 D,C, | B,,3 A,, G,,2 B,,C, |] D,2 D,2 G,,2 |] %10

